!!!OTL: AN EINEM FLUSS DER RAUSCHEND SCHOSS
!!!ARE: Europa, Mitteleuropa, Deutschland, Brandenburg; Schlesien; Thueringen
!!!SCT: B0647B
!!!YEM: Copyright 1995, estate of Helmut Schaffrath.
**kern
*ICvox
*Ivox
*M2/4
*k[]
*C:
{8G
=1
8.c
16c
16d
16c
16B
16A
=2
8.G
16A
8G}
{8F
=3
16E
16G
16G
16c
8.c
16E
=4
8E
8D
8r}
{8c
=5
8.B
16d
8c
8e
=6
16d
16c
16d
16f
8e}
{8G
=7
24A
24f
24e
8d
8e
8d
=8
4c
8r}
==
!!!AGN: Moral - Lied, Ballade
!!!ONB: ESAC (Essen Associative Code) Database: BOEHME
!!!AMT: simple duple
!!!AIN: vox
!!!EED: Helmut Schaffrath
!!!EEV: 1.0
*-
